public/assets/kaartFront2.svg

<svg width="235" height="342" viewBox="0 0 235 342" fill="none" xmlns="http://www.w3.org/2000/svg">
<path d="M234.877 342L0 341.487L9.61034 1.28138L225.779 0L234.877 342Z" fill="#FEF1F0"/>
<path d="M28.8305 19.0964L28.5742 24.8626L34.853 23.3249L34.0842 40.6235L40.8755 40.4954L40.2348 16.2773L28.8305 19.0964Z" fill="#5C414E"/>
<path d="M58.1765 15.8918C46.3878 16.2762 47.1566 27.6805 47.4129 30.6277C47.6692 33.5749 49.0787 41.135 57.4076 41.135C65.4803 41.0068 68.2994 34.9844 68.4275 27.4242C68.94 15.3793 58.1765 15.8918 58.1765 15.8918ZM56.1262 35.2406C55.1011 34.9844 52.2821 35.2406 52.2821 28.5775C52.2821 21.9143 57.4076 22.0424 57.4076 22.0424C57.4076 22.0424 63.302 20.5048 63.6864 28.7056C64.0708 36.9064 57.2795 35.3688 56.1262 35.2406Z" fill="#5C414E"/>
<path d="M215.657 324.063L215.786 318.425L209.635 319.835L210.276 302.664H203.484L204.253 326.882L215.657 324.063Z" fill="#5C414E"/>
<path d="M186.183 327.267C197.972 326.882 197.203 315.478 196.946 312.531C196.69 309.584 195.281 302.023 186.952 302.023C178.879 302.152 176.06 308.174 175.932 315.734C175.419 327.779 186.183 327.267 186.183 327.267ZM188.233 308.046C189.258 308.302 192.077 308.046 192.077 314.709C192.077 321.372 186.952 321.244 186.952 321.244C186.952 321.244 181.057 322.782 180.673 314.581C180.289 306.38 187.208 307.79 188.233 308.046Z" fill="#5C414E"/>
<path d="M99.564 64.9668C99.564 64.7106 99.564 64.4543 99.564 64.198C99.564 57.9193 94.5666 52.9219 88.2878 52.9219C82.0091 52.9219 77.0117 57.9193 77.0117 64.198C77.0117 64.4543 77.0117 64.7106 77.0117 64.9668C72.5269 66.3764 69.1953 70.733 69.1953 75.7304C69.1953 82.0092 74.1927 87.0066 80.4714 87.0066C82.5216 87.0066 84.4437 86.494 86.1095 85.4689L84.1874 95.4637L95.848 95.2074L90.4662 85.597C92.132 86.494 93.9259 87.0066 95.9761 87.0066C102.255 87.0066 107.252 82.0092 107.252 75.7304C107.38 70.733 104.049 66.5045 99.564 64.9668Z" fill="#5C414E"/>
<path d="M99.564 130.572C99.564 130.316 99.564 130.06 99.564 129.803C99.564 123.525 94.5666 118.527 88.2878 118.527C82.0091 118.527 77.0117 123.525 77.0117 129.803C77.0117 130.06 77.0117 130.316 77.0117 130.572C72.5269 131.982 69.1953 136.339 69.1953 141.336C69.1953 147.615 74.1927 152.612 80.4714 152.612C82.5216 152.612 84.4437 152.099 86.1095 151.074L84.1874 161.069L95.848 160.813L90.4662 151.203C92.132 152.099 93.9259 152.612 95.9761 152.612C102.255 152.612 107.252 147.615 107.252 141.336C107.38 136.21 104.049 131.982 99.564 130.572Z" fill="#5C414E"/>
<path d="M99.564 196.18C99.564 195.923 99.564 195.667 99.564 195.411C99.564 189.132 94.5666 184.135 88.2878 184.135C82.0091 184.135 77.0117 189.132 77.0117 195.411C77.0117 195.667 77.0117 195.923 77.0117 196.18C72.5269 197.589 69.1953 201.946 69.1953 206.943C69.1953 213.222 74.1927 218.219 80.4714 218.219C82.5216 218.219 84.4437 217.707 86.1095 216.682L84.1874 226.677L95.848 226.42L90.4662 216.81C92.132 217.707 93.9259 218.219 95.9761 218.219C102.255 218.219 107.252 213.222 107.252 206.943C107.38 201.818 104.049 197.589 99.564 196.18Z" fill="#5C414E"/>
<path d="M99.564 261.658C99.564 261.402 99.564 261.146 99.564 260.889C99.564 254.611 94.5666 249.613 88.2878 249.613C82.0091 249.613 77.0117 254.611 77.0117 260.889C77.0117 261.146 77.0117 261.402 77.0117 261.658C72.5269 263.068 69.1953 267.424 69.1953 272.422C69.1953 278.701 74.1927 283.698 80.4714 283.698C82.5216 283.698 84.4437 283.185 86.1095 282.16L84.3156 292.155L95.9761 291.899L90.5943 282.288C92.2601 283.185 94.0541 283.698 96.1043 283.698C102.383 283.698 107.38 278.701 107.38 272.422C107.38 267.424 104.049 263.196 99.564 261.658Z" fill="#5C414E"/>
<path d="M134.291 99.3086C134.291 99.0524 134.291 98.7961 134.291 98.5398C134.291 92.2611 129.293 87.2637 123.014 87.2637C116.736 87.2637 111.738 92.2611 111.738 98.5398C111.738 98.7961 111.738 99.0524 111.738 99.3086C107.253 100.718 103.922 105.075 103.922 110.072C103.922 116.351 108.919 121.348 115.198 121.348C117.248 121.348 119.17 120.836 120.836 119.811L118.914 129.805L130.575 129.549L125.193 119.939C126.859 120.836 128.653 121.348 130.703 121.348C136.981 121.348 141.979 116.351 141.979 110.072C142.107 104.947 138.904 100.718 134.291 99.3086Z" fill="#5C414E"/>
<path d="M134.291 227.447C134.291 227.191 134.291 226.935 134.291 226.678C134.291 220.4 129.293 215.402 123.014 215.402C116.736 215.402 111.738 220.4 111.738 226.678C111.738 226.935 111.738 227.191 111.738 227.447C107.253 228.857 103.922 233.213 103.922 238.211C103.922 244.49 108.919 249.487 115.198 249.487C117.248 249.487 119.17 248.974 120.836 247.949L118.914 257.944L130.575 257.688L125.193 248.078C126.859 248.974 128.653 249.487 130.703 249.487C136.981 249.487 141.979 244.49 141.979 238.211C142.107 233.085 138.904 228.857 134.291 227.447Z" fill="#5C414E"/>
<path d="M169.013 64.9668C169.013 64.7106 169.013 64.4543 169.013 64.198C169.013 57.9193 164.016 52.9219 157.737 52.9219C151.458 52.9219 146.461 57.9193 146.461 64.198C146.461 64.4543 146.461 64.7106 146.461 64.9668C141.976 66.3764 138.645 70.733 138.645 75.7304C138.645 82.0092 143.642 87.0066 149.921 87.0066C151.971 87.0066 153.893 86.494 155.559 85.4689L153.637 95.4637L165.297 95.2074L159.915 85.597C161.581 86.494 163.375 87.0066 165.425 87.0066C171.704 87.0066 176.701 82.0092 176.701 75.7304C176.83 70.733 173.626 66.5045 169.013 64.9668Z" fill="#5C414E"/>
<path d="M169.013 130.572C169.013 130.316 169.013 130.06 169.013 129.803C169.013 123.525 164.016 118.527 157.737 118.527C151.458 118.527 146.461 123.525 146.461 129.803C146.461 130.06 146.461 130.316 146.461 130.572C141.976 131.982 138.645 136.339 138.645 141.336C138.645 147.615 143.642 152.612 149.921 152.612C151.971 152.612 153.893 152.099 155.559 151.074L153.637 161.069L165.297 160.813L159.915 151.203C161.581 152.099 163.375 152.612 165.425 152.612C171.704 152.612 176.701 147.615 176.701 141.336C176.83 136.21 173.626 131.982 169.013 130.572Z" fill="#5C414E"/>
<path d="M169.013 196.18C169.013 195.923 169.013 195.667 169.013 195.411C169.013 189.132 164.016 184.135 157.737 184.135C151.458 184.135 146.461 189.132 146.461 195.411C146.461 195.667 146.461 195.923 146.461 196.18C141.976 197.589 138.645 201.946 138.645 206.943C138.645 213.222 143.642 218.219 149.921 218.219C151.971 218.219 153.893 217.707 155.559 216.682L153.637 226.677L165.297 226.42L159.915 216.81C161.581 217.707 163.375 218.219 165.425 218.219C171.704 218.219 176.701 213.222 176.701 206.943C176.83 201.818 173.626 197.589 169.013 196.18Z" fill="#5C414E"/>
<path d="M169.013 261.658C169.013 261.402 169.013 261.146 169.013 260.889C169.013 254.611 164.016 249.613 157.737 249.613C151.458 249.613 146.461 254.611 146.461 260.889C146.461 261.146 146.461 261.402 146.461 261.658C141.976 263.068 138.645 267.424 138.645 272.422C138.645 278.701 143.642 283.698 149.921 283.698C151.971 283.698 153.893 283.185 155.559 282.16L153.637 292.155L165.297 291.899L159.915 282.288C161.581 283.185 163.375 283.698 165.425 283.698C171.704 283.698 176.701 278.701 176.701 272.422C176.83 267.424 173.626 263.196 169.013 261.658Z" fill="#5C414E"/>
</svg>

<svg width="235" height="342" fill="none" xmlns="http://www.w3.org/2000/svg"><path d="M234.877 342L0 341.487 9.61 1.281 225.78 0l9.098 342z" fill="#FEF1F0"/><path d="M28.83 19.096l-.256 5.767 6.279-1.538-.769 17.299 6.791-.129-.64-24.218-11.404 2.82zM58.176 15.892c-11.788.384-11.02 11.788-10.763 14.736.256 2.947 1.666 10.507 9.995 10.507 8.072-.128 10.891-6.15 11.02-13.71.512-12.046-10.252-11.533-10.252-11.533zm-2.05 19.349c-1.025-.257-3.844 0-3.844-6.663 0-6.664 5.126-6.536 5.126-6.536s5.894-1.537 6.278 6.664c.385 8.2-6.407 6.663-7.56 6.535zM215.657 324.063l.129-5.638-6.151 1.41.641-17.171h-6.792l.769 24.218 11.404-2.819zM186.183 327.267c11.789-.385 11.02-11.789 10.763-14.736-.256-2.947-1.665-10.508-9.994-10.508-8.073.129-10.892 6.151-11.02 13.711-.513 12.045 10.251 11.533 10.251 11.533zm2.05-19.221c1.025.256 3.844 0 3.844 6.663s-5.125 6.535-5.125 6.535-5.895 1.538-6.279-6.663c-.384-8.201 6.535-6.791 7.56-6.535zM99.564 64.967v-.769a11.211 11.211 0 00-11.276-11.276 11.211 11.211 0 00-11.276 11.276v.769c-4.485 1.41-7.817 5.766-7.817 10.763a11.211 11.211 0 0011.276 11.277c2.05 0 3.973-.513 5.638-1.538l-1.922 9.995 11.661-.257-5.382-9.61c1.666.897 3.46 1.41 5.51 1.41a11.211 11.211 0 0011.276-11.277c.128-4.997-3.203-9.226-7.688-10.763zM99.564 130.572v-.769a11.212 11.212 0 00-11.276-11.276 11.212 11.212 0 00-11.276 11.276v.769c-4.485 1.41-7.817 5.767-7.817 10.764a11.211 11.211 0 0011.276 11.276c2.05 0 3.973-.513 5.638-1.538l-1.922 9.995 11.661-.256-5.382-9.61c1.666.896 3.46 1.409 5.51 1.409a11.21 11.21 0 0011.276-11.276c.128-5.126-3.203-9.354-7.688-10.764zM99.564 196.18v-.769a11.211 11.211 0 00-11.276-11.276 11.211 11.211 0 00-11.276 11.276v.769c-4.485 1.409-7.817 5.766-7.817 10.763a11.211 11.211 0 0011.276 11.276c2.05 0 3.973-.512 5.638-1.537l-1.922 9.995 11.661-.257-5.382-9.61c1.666.897 3.46 1.409 5.51 1.409a11.21 11.21 0 0011.276-11.276c.128-5.125-3.203-9.354-7.688-10.763zM99.564 261.658v-.769a11.212 11.212 0 00-11.276-11.276 11.212 11.212 0 00-11.276 11.276v.769c-4.485 1.41-7.817 5.766-7.817 10.764a11.211 11.211 0 0011.276 11.276c2.05 0 3.973-.513 5.638-1.538l-1.793 9.995 11.66-.256-5.382-9.611c1.666.897 3.46 1.41 5.51 1.41a11.21 11.21 0 0011.276-11.276c0-4.998-3.331-9.226-7.816-10.764zM134.291 99.309v-.77a11.212 11.212 0 00-11.277-11.275 11.212 11.212 0 00-11.276 11.276v.769c-4.485 1.409-7.816 5.766-7.816 10.763a11.21 11.21 0 0011.276 11.276c2.05 0 3.972-.512 5.638-1.537l-1.922 9.994 11.661-.256-5.382-9.61c1.666.897 3.46 1.409 5.51 1.409a11.211 11.211 0 0011.276-11.276c.128-5.125-3.075-9.354-7.688-10.763zM134.291 227.447v-.769a11.212 11.212 0 00-11.277-11.276 11.212 11.212 0 00-11.276 11.276v.769c-4.485 1.41-7.816 5.766-7.816 10.764a11.21 11.21 0 0011.276 11.276c2.05 0 3.972-.513 5.638-1.538l-1.922 9.995 11.661-.256-5.382-9.61c1.666.896 3.46 1.409 5.51 1.409a11.211 11.211 0 0011.276-11.276c.128-5.126-3.075-9.354-7.688-10.764zM169.013 64.967v-.769a11.211 11.211 0 00-11.276-11.276 11.211 11.211 0 00-11.276 11.276v.769c-4.485 1.41-7.816 5.766-7.816 10.763a11.211 11.211 0 0011.276 11.277c2.05 0 3.972-.513 5.638-1.538l-1.922 9.995 11.66-.257-5.382-9.61c1.666.897 3.46 1.41 5.51 1.41a11.211 11.211 0 0011.276-11.277c.129-4.997-3.075-9.226-7.688-10.763zM169.013 130.572v-.769a11.211 11.211 0 00-11.276-11.276 11.211 11.211 0 00-11.276 11.276v.769c-4.485 1.41-7.816 5.767-7.816 10.764a11.21 11.21 0 0011.276 11.276c2.05 0 3.972-.513 5.638-1.538l-1.922 9.995 11.66-.256-5.382-9.61c1.666.896 3.46 1.409 5.51 1.409a11.21 11.21 0 0011.276-11.276c.129-5.126-3.075-9.354-7.688-10.764zM169.013 196.18v-.769a11.21 11.21 0 00-11.276-11.276 11.21 11.21 0 00-11.276 11.276v.769c-4.485 1.409-7.816 5.766-7.816 10.763a11.21 11.21 0 0011.276 11.276c2.05 0 3.972-.512 5.638-1.537l-1.922 9.995 11.66-.257-5.382-9.61c1.666.897 3.46 1.409 5.51 1.409a11.21 11.21 0 0011.276-11.276c.129-5.125-3.075-9.354-7.688-10.763zM169.013 261.658v-.769a11.211 11.211 0 00-11.276-11.276 11.211 11.211 0 00-11.276 11.276v.769c-4.485 1.41-7.816 5.766-7.816 10.764a11.21 11.21 0 0011.276 11.276c2.05 0 3.972-.513 5.638-1.538l-1.922 9.995 11.66-.256-5.382-9.611c1.666.897 3.46 1.41 5.51 1.41a11.21 11.21 0 0011.276-11.276c.129-4.998-3.075-9.226-7.688-10.764z" fill="#5C414E"/></svg>
